X:490
T:Humours of Trim, The
R:jig
Z:Transcribed by Dave Marshall
M:6/8
K:D
|: ~F3 DED|D2d cAG|~F3 DED|A2F GFE|
~F3 DED|D2d cAG|FAF GBG|ABA GFE:|
|:D2d cAd|cAd cAG|F2d cAG|FAF GFE|
D2d cde|fed cAG|FAF GBG|ABA GFE:|
